X:23
T:Brennan on the Moor PC2 - Woodrich
%%VWML:SBG-1-2-823-0
F:http://www.vwml.org/record/SBG/1/2/823
Z:Original Sibelius transcriptions by M. & S. Graebe
L:1/8
M:4/4
I:linebreak $
K:C
V:1 treble nm="P1"
V:2 treble 
V:1
 C | C G, C3/2 D/ E F G3/2 B/ | d c B A G2 G | c3/2 B/ c A G/F/ A | G F D B, C3 |$ C | %6
 C G, C3/2 D/ E F G A | d c B A G3 G | c B c A G F G A | A F E B,2 C3 |$ E/ G3/2 G3/2 A/ G4 | %11
 A/ c3/2 c3/2 d/ c4 | c3{/B} A G E C3/2 D/ | E/ D3/2 C3/2 B,/ C3 x | %14
V:2
 x | x8 | x7 | x4 x E | x7 |$ x | x8 | x8 | x8 | x8 |$ x8 | x8 | x8 | x8 | %14
T:Brennan on the Moor PC2 - Hurd
F:http://www.vwml.org/record/SBG/1/2/823
Z:Original Sibelius transcriptions by M. & S. Graebe
M:2/4
I:linebreak $
K:D
V:1 treble nm="P1"
V:1
 A2 | D3 E F3 G | A3 B A3 A | B3 A B3 c | (d6 d3) A | d3 e d3 c | B3 A F3 D |$ F3 F E3 D | %8
 (E6 E2) F3 E | D3 E F3 G | A3 A A3 A | B2 A2 B3 c | d6 A2 |$"^common time" d2e2d2>c2 | B2A2F2D2 | %15
 F2F2E2>D2 |"^rall." A6 F2 | E2 D2 z D3 E | D8 |$ F E3 F3 G | (A4 A4) | d2c2e2d2 | c2B2 A2G2 | %23
 F2<E2 D2>C2 | !fermata!D16 | %25
T:Brennan on the Moor PC2 - Fone
F:http://www.vwml.org/record/SBG/1/2/823
Z:Original Sibelius transcriptions by M. & S. Graebe
M:6/8
I:linebreak $
K:D
V:1 treble nm="P1"
V:1
 DF | A2 A A2 B | A2 F D2 F | A2 B A2 B | A3 A2 A |[M:2/4] dedB | AAFD | FF ED | E6 F2 |$ %9
[M:6/8] G2 B d2 B | A2 F D2 d | d2 ^c B2 ^A | B6 A2 |[M:2/4] dedB | BAFD | F2 ED | A3 F |$ %17
[M:6/8] E D2 D2 D | (D3 D2) | A2 B A2 A | (A3 A3) |[M:2/4] d2 cd | BAFD | FED>E | D6 | %25

